X:111 
T:Last Night's Fun 
S:W.Fitzgerald MS
F:file ID: cre.5/111Last_nf
B:CRE5.064 (SclÃÂÃÂÃÂÃÂ©ip na hOÃÂÃÂÃÂÃÂ­che ArÃÂÃÂÃÂÃÂ©ir)
Q:160
M:9/8
R:slip jig
K:G
B|c2B c2A GED|c2B c2d e2d|
c2B c2A GED|DED DEG A2:|
B|c2d ecA GED|c2d ece g2e|
c2d ecA GED|DED DEG A2:|

%%%

